X:1
T:Resting in God’s Peace
T:Resting in God’s Peace
T:James Milton Black
T:Thomas M. Magee, 1915
T:Public Domain Courtesy of the Cyber Hymnal™
C:James Milton Black
Z:Public Domain
Z:Courtesy of the Cyber Hymnal™
%%score ( 1 2 ) ( 3 4 )
L:1/8
Q:1/4=100
M:6/8
K:C
V:1 treble 
V:2 treble 
V:3 bass 
V:4 bass 
V:1
 [EG] | [Ec]2 [Ec] [EB]2 [EB] | [EA]2 [EG] [CE]2 [EG] | [FA]2 [FA] [CF]2 [FA] | [EG]3- [EG]2 [EG] | %5
w: 1.~My|soul is rest- ing|in God’s peace, With-|out a doubt or|fear; * The|
w: 2.~The|Spir- it pour- eth|from on high, A|sanc- ti- fy- ing|tide, * And|
w: 3.~My|hand in His, I|will not fear, How|fierce may be the|storm; * I’m|
w: 4.~He|drives my ev- ery|doubt a- way, He|gives me child- like|faith; * And|
 [FB]2 [FB] [FA]2 [FB] | [Fd]2 [Ec] [Ec]2 [Ge] | [Gd]2 [Gd] [^Fc]2 [FA] | G3- G2 z || %9
w: bois- terous waves of|trou- ble cease, For|Christ, my Lord, is|near. *|
w: bath- ing in its|streams of joy, My|soul is sa- tis-|fied. *|
w: shel- tered in His|love each day, And|kept from all a-|larm. *|
w: so I take the|yea or nay, Just|as my Fa- ther|saith. *|
"^Refrain" [Ec]3 [FB]2 z | [Gd]3 [Gc]2 z | [FA][GB][Ac] [GB]2 [FA] | [EG]3- [EG]2 z | %13
w: ||||
w: Rest- ing,|rest- ing,|Rest- ing in God’s sweet|peace; *|
w: ||||
w: ||||
 [FA]3 [Fc]2 z | [EG]3 !fermata![Ge]2 [Gc] | [Fd]!fermata![Fd][Fd] [Ec]2 [FB] | [Ec]3- [Ec]2 |] %17
w: ||||
w: Rest- ing,|rest- ing, I’m|rest- ing in God’s sweet|peace. *|
w: ||||
w: ||||
V:2
 x | x6 | x6 | x6 | x6 | x6 | x6 | x6 | G3- G2 x || x6 | x6 | x6 | x6 | x6 | x6 | x6 | x5 |] %17
V:3
 [C,G,] | [C,G,]2 [C,G,] [C,G,]2 [C,G,] | [C,C]2 [C,C] [C,G,]2 [C,C] | [F,C]2 [F,C] [F,A,]2 [F,C] | %4
w: ~|~ ~ ~ ~|~ ~ ~ ~|~ ~ ~ ~|
 [C,C]3- [C,C]2 [C,C] | [G,D]2 [G,D] [G,C]2 [G,B,] | [C,G,]2 [C,G,] [C,G,]2 [C,C] | %7
w: ~ * ~|~ ~ ~ ~|~ ~ ~ ~|
 [D,B,]2 [D,B,] [D,A,]2 [D,C] | [G,B,]3- [G,B,]2 z || [C,G,][C,G,][C,G,] [D,G,]2 z | %10
w: ~ ~ ~ ~|~ *|Rest- ing in peace,|
 [F,B,][F,B,][F,B,] [E,C]2 z | [F,C][F,C][F,C] [F,C][F,C][F,C] | [C,C]2 [C,C] [C,C]2 z | %13
w: rest- ing in peace,|Rest- ing, I’m rest- ing in|God’s sweet peace;|
 [F,C][F,C][F,C] [F,A,]2 z | [C,C][E,C][G,C] !fermata!C2 [E,C] | %15
w: Rest- ing in peace,|rest- ing in peace, *|
 [F,A,][F,A,]!fermata![F,A,] G,2 [G,,G,] | [C,G,]3- [C,G,]2 |] %17
w: ||
V:4
 x | x6 | x6 | x6 | x6 | x6 | x6 | x6 | x6 || x6 | x6 | x6 | x6 | x6 | x3 C2 x | x3 G,2 x | x5 |] %17

